src/asset/24px/users.svg

<svg width="24" height="24" viewBox="0 0 24 24" fill="none" xmlns="http://www.w3.org/2000/svg">
<path fill-rule="evenodd" clip-rule="evenodd" d="M8.0765 18H15.9235C15.8393 17.5115 15.6944 17.1799 15.5324 16.9479C15.359 16.6997 15.1328 16.5175 14.8344 16.3785C14.185 16.0761 13.2582 16 12 16C10.7418 16 9.81504 16.0761 9.16559 16.3785C8.86722 16.5175 8.64097 16.6997 8.46765 16.9479C8.30557 17.1799 8.16077 17.5115 8.0765 18ZM8.32119 14.5655C9.42154 14.053 10.7704 14 12 14C13.2296 14 14.5785 14.053 15.6788 14.5655C16.2554 14.834 16.7726 15.2308 17.172 15.8026C17.5676 16.369 17.8132 17.0576 17.9261 17.8629C18.101 19.1111 17.0546 20 16 20H8.00001C6.94546 20 5.89902 19.1111 6.07395 17.8629C6.18681 17.0576 6.4324 16.369 6.82802 15.8026C7.22747 15.2308 7.74466 14.834 8.32119 14.5655Z" fill="#808080"/>
<path fill-rule="evenodd" clip-rule="evenodd" d="M12 10C11.4477 10 11 10.4477 11 11C11 11.5523 11.4477 12 12 12C12.5523 12 13 11.5523 13 11C13 10.4477 12.5523 10 12 10ZM9.00001 11C9.00001 9.34315 10.3432 8 12 8C13.6569 8 15 9.34315 15 11C15 12.6569 13.6569 14 12 14C10.3432 14 9.00001 12.6569 9.00001 11Z" fill="#808080"/>
<path fill-rule="evenodd" clip-rule="evenodd" d="M16 5C15.4477 5 15 5.44772 15 6C15 6.55228 15.4477 7 16 7C16.5523 7 17 6.55228 17 6C17 5.44772 16.5523 5 16 5ZM13 6C13 4.34315 14.3432 3 16 3C17.6569 3 19 4.34315 19 6C19 7.65685 17.6569 9 16 9C14.3432 9 13 7.65685 13 6Z" fill="#808080"/>
<path fill-rule="evenodd" clip-rule="evenodd" d="M16 7C16.5523 7 17 7.44772 17 8V8.9995C17.0006 9.00042 17.0017 9.00187 17.0036 9.00371C17.0118 9.01205 17.0268 9.02062 17.048 9.02164C18.0994 9.07236 19.2201 9.23375 20.1381 9.81602C21.1209 10.4394 21.7277 11.4473 21.9261 12.8629C22.101 14.1111 21.0546 15 20 15H17C16.4477 15 16 14.5523 16 14C16 13.4477 16.4477 13 17 13H19.9236C19.7768 12.1466 19.4431 11.7436 19.0669 11.5049C18.6058 11.2125 17.9244 11.0662 16.9516 11.0193C15.9028 10.9687 15 10.1209 15 9V8C15 7.44772 15.4477 7 16 7Z" fill="#808080"/>
<path fill-rule="evenodd" clip-rule="evenodd" d="M8.00001 5C8.55229 5 9.00001 5.44772 9.00001 6C9.00001 6.55228 8.55229 7 8.00001 7C7.44773 7 7.00001 6.55228 7.00001 6C7.00001 5.44772 7.44773 5 8.00001 5ZM11 6C11 4.34315 9.65686 3 8.00001 3C6.34316 3 5.00001 4.34315 5.00001 6C5.00001 7.65685 6.34316 9 8.00001 9C9.65686 9 11 7.65685 11 6Z" fill="#808080"/>
<path fill-rule="evenodd" clip-rule="evenodd" d="M8.00001 7C7.44773 7 7.00001 7.44772 7.00001 8V8.9995C6.99938 9.00042 6.99827 9.00187 6.99645 9.00371C6.9882 9.01205 6.97323 9.02062 6.95206 9.02164C5.90066 9.07236 4.7799 9.23375 3.86189 9.81602C2.87915 10.4394 2.27233 11.4473 2.07395 12.8629C1.89902 14.1111 2.94546 15 4.00001 15H7.00001C7.55229 15 8.00001 14.5523 8.00001 14C8.00001 13.4477 7.55229 13 7.00001 13H4.07647C4.22326 12.1466 4.55691 11.7436 4.93314 11.5049C5.39418 11.2125 6.07562 11.0662 7.04844 11.0193C8.09727 10.9687 9.00001 10.1209 9.00001 9V8C9.00001 7.44772 8.55229 7 8.00001 7Z" fill="#808080"/>
</svg>

<svg width="24" height="24" fill="none" xmlns="http://www.w3.org/2000/svg"><path fill-rule="evenodd" clip-rule="evenodd" d="M8.076 18h7.848c-.085-.488-.23-.82-.392-1.052-.173-.248-.4-.43-.698-.57C14.185 16.076 13.258 16 12 16s-2.185.076-2.834.378a1.682 1.682 0 00-.698.57c-.162.232-.307.564-.392 1.052zm.245-3.434C9.421 14.053 10.771 14 12 14c1.23 0 2.579.053 3.679.566a3.68 3.68 0 011.493 1.237c.396.566.641 1.255.754 2.06C18.101 19.11 17.055 20 16 20H8c-1.055 0-2.101-.889-1.926-2.137.113-.805.358-1.494.754-2.06a3.68 3.68 0 011.493-1.238z" fill="currentColor"/><path fill-rule="evenodd" clip-rule="evenodd" d="M12 10a1 1 0 100 2 1 1 0 000-2zm-3 1a3 3 0 116 0 3 3 0 01-6 0zM16 5a1 1 0 100 2 1 1 0 000-2zm-3 1a3 3 0 116 0 3 3 0 01-6 0z" fill="currentColor"/><path fill-rule="evenodd" clip-rule="evenodd" d="M16 7a1 1 0 011 1v1l.004.004a.066.066 0 00.044.018c1.051.05 2.172.212 3.09.794.983.623 1.59 1.631 1.788 3.047C22.101 14.11 21.055 15 20 15h-3a1 1 0 110-2h2.924c-.147-.853-.48-1.256-.857-1.495-.461-.293-1.143-.439-2.115-.486C15.902 10.97 15 10.121 15 9V8a1 1 0 011-1zM8 5a1 1 0 110 2 1 1 0 010-2zm3 1a3 3 0 10-6 0 3 3 0 006 0z" fill="currentColor"/><path fill-rule="evenodd" clip-rule="evenodd" d="M8 7a1 1 0 00-1 1v1l-.004.004a.067.067 0 01-.044.018c-1.051.05-2.172.212-3.09.794-.983.623-1.59 1.631-1.788 3.047C1.899 14.11 2.945 15 4 15h3a1 1 0 100-2H4.076c.147-.853.48-1.256.857-1.495.461-.293 1.143-.439 2.115-.486C8.098 10.97 9 10.121 9 9V8a1 1 0 00-1-1z" fill="currentColor"/></svg>
